X: 42146
T: Watchmaker, The
R: reel
M: 4/4
K: Adorian
cAAc BGGB|cAAB cded|cAAc BGGB|cABG EAAB|
cAAc BGGB|cAAB cded|cAAc BGGB|cABG EAA2||
(3(B^cd) ed fded|BGdG eGdG|(3(B^cd) ed fded|ea~a2 ea~a2|
agfa gfeg|edgd BG~G2|(3(EFG) AB cdef|gedB cAA2||

